templates/default/images/icon_rate_1.svg

<svg width="280" height="267" viewBox="0 0 280 267" fill="none" xmlns="http://www.w3.org/2000/svg">
<g clip-path="url(#clip0_7_6)">
<path d="M67.45 170.78L36 126.5V105.42L95.16 85.49L140 25.15L184.84 85.49L256.08 109.49L212.55 170.78L211.74 245.95L140 223.49L68.26 245.95L67.45 170.78ZM140 0L85.92 72.77L0 101.72L36 152.41L52.5 175.64L53.5 266.3L140 239.21L226.52 266.3L227.52 175.64L280 101.72L194.08 72.78L140 0Z" fill="#B54F00"/>
</g>
<defs>
<clipPath id="clip0_7_6">
<rect width="280" height="266.3" fill="white"/>
</clipPath>
</defs>
</svg>

<?xml version="1.0" encoding="utf-8"?>
<!-- Generator: Adobe Illustrator 26.0.1, SVG Export Plug-In . SVG Version: 6.00 Build 0)  -->
<svg version="1.1" id="Layer_1" xmlns="http://www.w3.org/2000/svg" xmlns:xlink="http://www.w3.org/1999/xlink" x="0px" y="0px"
	 viewBox="0 0 280 266.3" style="enable-background:new 0 0 280 266.3;" xml:space="preserve">
<style type="text/css">
	.st0{fill:#B54F00;}
</style>
<path class="st0" d="M67.4,170.8L36,126.5v-21.1l59.2-19.9L140,25.1l44.8,60.3l71.2,24l-43.5,61.3l-0.8,75.2L140,223.5l-71.7,22.5
	L67.4,170.8z M140,0L85.9,72.8L0,101.7l0,0l36,50.7l16.5,23.2l1,90.7l86.5-27.1l0,0l86.5,27.1l1-90.7l52.5-73.9l-85.9-28.9L140,0z"
	/>
</svg>
